public/icons/mysql.svg

<svg width="128" height="128" viewBox="0 0 128 128" fill="none" xmlns="http://www.w3.org/2000/svg">
<path d="M116.948 97.807C110.085 97.62 104.844 98.259 100.363 100.148C99.0901 100.685 97.0581 100.7 96.8501 102.295C97.5501 103.028 97.6591 104.124 98.2151 105.026C99.2851 106.756 101.091 109.078 102.703 110.294C104.465 111.624 106.28 113.045 108.168 114.196C111.526 116.243 115.275 117.413 118.508 119.464C120.414 120.674 122.307 122.197 124.166 123.561C125.086 124.236 125.703 125.285 126.898 125.708V125.514C126.27 124.714 126.108 123.616 125.532 122.781L122.995 120.244C120.515 116.952 117.366 114.06 114.019 111.659C111.35 109.743 105.377 107.155 104.264 104.05L104.069 103.855C105.961 103.641 108.176 102.957 109.923 102.488C112.857 101.702 115.479 101.905 118.508 101.123L122.605 99.952V99.172C121.074 97.601 119.982 95.521 118.313 94.099C113.943 90.379 109.175 86.662 104.265 83.562C101.541 81.844 98.1761 80.727 95.2891 79.27C94.3181 78.779 92.6121 78.524 91.9711 77.708C90.4541 75.776 89.6291 73.326 88.4601 71.075C86.0111 66.358 83.6061 61.207 81.4361 56.244C79.9561 52.86 78.9891 49.524 77.1431 46.488C68.2831 31.921 58.7471 23.13 43.9741 14.488C40.8301 12.65 37.0451 11.925 33.0451 10.975C30.9001 10.846 28.7531 10.715 26.6071 10.584C25.2961 10.038 23.9341 8.43497 22.7051 7.65697C17.8111 4.56497 5.25712 -2.16003 1.63312 6.68197C-0.655885 12.263 5.05412 17.707 7.09512 20.536C8.52912 22.518 10.3641 24.743 11.3881 26.974C12.0621 28.441 12.1781 29.912 12.7551 31.463C14.1721 35.285 15.4071 39.443 17.2421 42.974C18.1691 44.762 19.1911 46.644 20.3641 48.242C21.0821 49.223 22.3151 49.655 22.5091 51.169C21.3051 52.855 21.2361 55.473 20.5591 57.609C17.5091 67.224 18.6601 79.176 23.0961 86.292C24.4561 88.478 27.6631 93.163 32.0711 91.365C35.9271 89.795 35.0661 84.927 36.1691 80.633C36.4181 79.66 36.2651 78.944 36.7541 78.292V78.487L40.2671 85.511C42.8671 89.698 47.4791 94.073 51.3891 97.025C53.4161 98.556 55.0121 101.202 57.6331 102.098V101.902H57.4381C56.9301 101.111 56.1351 100.783 55.4871 100.147C53.9601 98.65 52.2621 96.789 51.0001 95.074C47.4441 90.247 44.3021 84.964 41.4391 79.465C40.0711 76.838 38.8821 73.942 37.7301 71.269C37.2861 70.239 37.2921 68.68 36.3661 68.147C35.1031 70.105 33.2441 71.689 32.2681 74.001C30.7071 77.697 30.5061 82.205 29.9271 86.879C29.5851 87.001 29.7371 86.917 29.5361 87.073C26.8181 86.418 25.8641 83.621 24.8531 81.22C22.2991 75.15 21.8241 65.378 24.0721 58.391C24.6541 56.582 27.2821 50.89 26.2181 49.219C25.7101 47.553 24.0341 46.589 23.0971 45.316C21.9361 43.742 20.7781 41.67 19.9731 39.852C17.8831 35.121 16.9071 29.808 14.7061 25.024C13.6531 22.737 11.8741 20.422 10.4131 18.39C8.79612 16.137 6.98412 14.478 5.73012 11.755C5.28412 10.787 4.67912 9.23697 5.33912 8.24197C5.54912 7.57097 5.84712 7.29097 6.51012 7.07197C7.64212 6.19897 10.7941 7.36197 11.9721 7.85097C15.1011 9.15097 17.7131 10.389 20.3641 12.145C21.6351 12.989 22.9231 14.62 24.4611 15.072H26.2171C28.9641 15.703 32.0411 15.267 34.6081 16.047C39.1441 17.425 43.2091 19.57 46.9001 21.901C58.1461 29.003 67.3421 39.111 73.6321 51.17C74.6441 53.112 75.0821 54.964 75.9731 57.024C77.7711 61.177 80.0361 65.45 81.8251 69.512C83.6111 73.564 85.3511 77.653 87.8751 81.025C89.2021 82.797 94.3261 83.748 96.6561 84.733C98.2881 85.422 100.963 86.142 102.51 87.073C105.463 88.855 108.325 90.976 111.096 92.928C112.479 93.903 116.736 96.044 116.948 97.807V97.807ZM29.7291 23.466C28.2981 23.439 27.2861 23.622 26.2161 23.855V24.05H26.4111C27.0941 25.452 28.2991 26.356 29.1421 27.563C29.7921 28.93 30.4431 30.295 31.0941 31.66L31.2881 31.467C32.4971 30.614 33.0501 29.253 33.0431 27.173C32.5591 26.664 32.4881 26.026 32.0681 25.418C31.5121 24.607 30.4331 24.146 29.7291 23.466Z" fill="#00618A"/>
</svg>

<svg xmlns="http://www.w3.org/2000/svg" fill="none" viewBox="0 0 128 128"><path fill="#00618A" d="M116.948 97.807c-6.863-.187-12.104.452-16.585 2.341-1.273.537-3.305.552-3.513 2.147.7.733.81 1.829 1.365 2.731 1.07 1.73 2.876 4.052 4.488 5.268 1.762 1.33 3.577 2.751 5.465 3.902 3.358 2.047 7.107 3.217 10.34 5.268 1.906 1.21 3.799 2.733 5.658 4.097.92.675 1.537 1.724 2.732 2.147v-.194c-.628-.8-.79-1.898-1.366-2.733l-2.537-2.537c-2.48-3.292-5.629-6.184-8.976-8.585-2.669-1.916-8.642-4.504-9.755-7.609l-.195-.195c1.892-.214 4.107-.898 5.854-1.367 2.934-.786 5.556-.583 8.585-1.365l4.097-1.171v-.78c-1.531-1.571-2.623-3.651-4.292-5.073-4.37-3.72-9.138-7.437-14.048-10.537-2.724-1.718-6.089-2.835-8.976-4.292-.97-.491-2.677-.746-3.318-1.562-1.517-1.932-2.342-4.382-3.51-6.633-2.45-4.717-4.855-9.868-7.025-14.831-1.48-3.384-2.447-6.72-4.293-9.756-8.86-14.567-18.396-23.358-33.169-32-3.144-1.838-6.929-2.563-10.929-3.513-2.145-.129-4.292-.26-6.438-.391-1.31-.546-2.673-2.149-3.902-2.927C17.811 4.565 5.257-2.16 1.633 6.682c-2.289 5.581 3.421 11.025 5.462 13.854 1.434 1.982 3.27 4.207 4.293 6.438.674 1.467.79 2.938 1.367 4.489 1.417 3.822 2.652 7.98 4.487 11.511.927 1.788 1.95 3.67 3.122 5.268.718.981 1.951 1.413 2.145 2.927-1.204 1.686-1.273 4.304-1.95 6.44-3.05 9.615-1.899 21.567 2.537 28.683 1.36 2.186 4.567 6.871 8.975 5.073 3.856-1.57 2.995-6.438 4.098-10.732.25-.973.096-1.689.585-2.341v.195l3.513 7.024c2.6 4.187 7.212 8.562 11.122 11.514 2.027 1.531 3.623 4.177 6.244 5.073v-.196h-.195c-.508-.791-1.303-1.119-1.95-1.755-1.528-1.497-3.226-3.358-4.488-5.073-3.556-4.827-6.698-10.11-9.56-15.609-1.369-2.627-2.558-5.523-3.71-8.196-.444-1.03-.438-2.589-1.364-3.122-1.263 1.958-3.122 3.542-4.098 5.854-1.56 3.696-1.762 8.204-2.34 12.878-.343.122-.19.038-.392.194-2.718-.655-3.672-3.452-4.683-5.853-2.554-6.07-3.029-15.842-.78-22.829.581-1.809 3.21-7.501 2.145-9.172-.508-1.666-2.184-2.63-3.12-3.903-1.162-1.574-2.32-3.646-3.125-5.464-2.09-4.731-3.066-10.044-5.267-14.828-1.053-2.287-2.832-4.602-4.293-6.634-1.617-2.253-3.429-3.912-4.683-6.635-.446-.968-1.05-2.518-.39-3.513.21-.671.507-.951 1.17-1.17 1.132-.873 4.284.29 5.462.779 3.13 1.3 5.741 2.538 8.392 4.294 1.271.844 2.56 2.475 4.097 2.927h1.756c2.747.631 5.824.195 8.391.975 4.536 1.378 8.601 3.523 12.292 5.854 11.246 7.102 20.442 17.21 26.732 29.269 1.012 1.942 1.45 3.794 2.341 5.854 1.798 4.153 4.063 8.426 5.852 12.488 1.786 4.052 3.526 8.141 6.05 11.513 1.327 1.772 6.451 2.723 8.781 3.708 1.632.689 4.307 1.409 5.854 2.34 2.953 1.782 5.815 3.903 8.586 5.855 1.383.975 5.64 3.116 5.852 4.879ZM29.729 23.466c-1.43-.027-2.443.156-3.513.389v.195h.195c.683 1.402 1.888 2.306 2.731 3.513.65 1.367 1.301 2.732 1.952 4.097l.194-.193c1.21-.853 1.762-2.214 1.755-4.294-.484-.509-.555-1.147-.975-1.755-.556-.811-1.635-1.272-2.339-1.952Z"/></svg>
